SVG_Azure_Grouped/Workload/FTP Server.svg

<?xml version="1.0" encoding="UTF-8" standalone="no"?>
<!-- Generated by Microsoft Visio, SVG Export FTP Server.svg Page-1 -->

<svg
   xmlns:dc="http://purl.org/dc/elements/1.1/"
   xmlns:cc="http://creativecommons.org/ns#"
   xmlns:rdf="http://www.w3.org/1999/02/22-rdf-syntax-ns#"
   xmlns:svg="http://www.w3.org/2000/svg"
   xmlns="http://www.w3.org/2000/svg"
   xmlns:sodipodi="http://sodipodi.sourceforge.net/DTD/sodipodi-0.dtd"
   xmlns:inkscape="http://www.inkscape.org/namespaces/inkscape"
   width="0.70860583in"
   height="0.78735888in"
   viewBox="0 0 51.019458 56.690022"
   xml:space="preserve"
   class="st8"
   version="1.1"
   id="svg159"
   sodipodi:docname="FTP Server.svg"
   style="font-size:12px;overflow:visible;color-interpolation-filters:sRGB;fill:none;fill-rule:evenodd;stroke-linecap:square;stroke-miterlimit:3"
   inkscape:version="0.92.5 (2060ec1f9f, 2020-04-08)"><metadata
   id="metadata163"><rdf:RDF><cc:Work
       rdf:about=""><dc:format>image/svg+xml</dc:format><dc:type
         rdf:resource="http://purl.org/dc/dcmitype/StillImage" /></cc:Work></rdf:RDF></metadata><sodipodi:namedview
   pagecolor="#ffffff"
   bordercolor="#666666"
   borderopacity="1"
   objecttolerance="10"
   gridtolerance="10"
   guidetolerance="10"
   inkscape:pageopacity="0"
   inkscape:pageshadow="2"
   inkscape:window-width="640"
   inkscape:window-height="480"
   id="namedview161"
   showgrid="false"
   inkscape:zoom="1.3012356"
   inkscape:cx="27.287671"
   inkscape:cy="32.847366"
   inkscape:window-x="0"
   inkscape:window-y="0"
   inkscape:window-maximized="0"
   inkscape:current-layer="svg159" />
	<style
   type="text/css"
   id="style2">
	<![CDATA[
		.st1 {fill:url(#grad0-11);stroke:none;stroke-linecap:butt;stroke-width:35.9596}
		.st2 {fill:#003067;stroke:none;stroke-linecap:butt;stroke-width:35.9596}
		.st3 {fill:#50e6ff;stroke:none;stroke-linecap:butt;stroke-width:35.9596}
		.st4 {fill:#f9f9f9;fill-opacity:0.5;stroke:none;stroke-linecap:butt;stroke-width:43.3719}
		.st5 {fill:url(#grad0-35);stroke:none;stroke-linecap:butt;stroke-width:0.749997}
		.st6 {fill:#0078d4;stroke:none;stroke-linecap:butt;stroke-width:0.749997}
		.st7 {fill:#f2f2f2;stroke:none;stroke-linecap:butt;stroke-width:0.749997}
		.st8 {fill:none;fill-rule:evenodd;font-size:12px;overflow:visible;stroke-linecap:square;stroke-miterlimit:3}
	]]>
	</style>

	<defs
   id="Patterns_And_Gradients">
		<linearGradient
   id="grad0-11"
   x1="-0.00015220891"
   y1="62.393016"
   x2="43.413216"
   y2="62.393016"
   gradientTransform="scale(0.77787373,1.2855557)"
   gradientUnits="userSpaceOnUse">
			<stop
   offset="0"
   stop-color="#949494"
   stop-opacity="1"
   id="stop4" />
			<stop
   offset="0.53"
   stop-color="#a2a2a2"
   stop-opacity="1"
   id="stop6" />
			<stop
   offset="1"
   stop-color="#b3b3b3"
   stop-opacity="1"
   id="stop8" />
		</linearGradient>
		<linearGradient
   id="grad0-35"
   x1="0"
   y1="144.39594"
   x2="27.484132"
   y2="144.39594"
   gradientTransform="scale(1.2636382,0.79136573)"
   gradientUnits="userSpaceOnUse">
			<stop
   offset="0"
   stop-color="#32bedd"
   stop-opacity="1"
   id="stop11" />
			<stop
   offset="0.175"
   stop-color="#32caea"
   stop-opacity="1"
   id="stop13" />
			<stop
   offset="0.41"
   stop-color="#32d2f2"
   stop-opacity="1"
   id="stop15" />
			<stop
   offset="0.775"
   stop-color="#32d4f5"
   stop-opacity="1"
   id="stop17" />
		</linearGradient>
	</defs>
	<g
   id="g157"
   transform="translate(-35.96004,-35.958078)">
		<title
   id="title21">Page-1</title>
		<g
   id="group15187-1"
   transform="translate(35.9598,-43.3719)">
			<title
   id="title23">FTP Server.15187</title>
			<g
   id="group15188-2">
				<title
   id="title25">Page-1</title>
				<g
   id="group15189-3">
					<title
   id="title27">Sheet.15189</title>
					<g
   id="group15190-4"
   transform="translate(0,-0.879719)">
						<title
   id="title29">Sheet.15190</title>
						<g
   id="group15191-5">
							<title
   id="title31">Icon-databases-136.149</title>
							<g
   id="group15192-6">
								<title
   id="title33">path4-5</title>
								<g
   id="group15193-7">
									<title
   id="title35">Sheet.15193</title>
									<g
   id="shape15194-8">
										<title
   id="title37">Sheet.15194</title>
										<path
   d="m 33.77,134.12 a 1.99423,1.93635 -180 0 1 -1.96,1.9 H 1.96 A 1.95986,1.90296 -180 0 1 0,134.12 V 82.1 a 1.92547,1.86957 -180 0 1 1.96,-1.89 h 29.85 a 1.95986,1.90296 -180 0 1 1.96,1.89 z"
   class="st1"
   id="path39"
   inkscape:connector-curvature="0"
   style="fill:url(#grad0-11);stroke:none;stroke-width:35.95959854;stroke-linecap:butt" />
									</g>
								</g>
							</g>
							<g
   id="group15195-12"
   transform="translate(4.95121,-32.684)">
								<title
   id="title44">path6-7</title>
								<g
   id="group15196-13">
									<title
   id="title46">Sheet.15196</title>
									<g
   id="shape15197-14">
										<title
   id="title48">Sheet.15197</title>
										<path
   d="m 0,132.46 a 3.67902,3.57222 -180 0 1 3.65,-3.54 h 16.84 a 3.67902,3.57222 -180 0 1 3.78,3.54 3.67902,3.57222 -180 0 1 -3.78,3.56 H 3.65 A 3.67902,3.57222 -180 0 1 0,132.46 Z M 0,121.9 a 3.67902,3.57222 -180 0 1 3.65,-3.57 h 16.84 a 3.67902,3.57222 -180 0 1 3.78,3.57 3.67902,3.57222 -180 0 1 -3.78,3.55 H 3.65 A 3.67902,3.57222 -180 0 1 0,121.9 Z"
   class="st2"
   id="path50"
   inkscape:connector-curvature="0"
   style="fill:#003067;stroke:none;stroke-width:35.95959854;stroke-linecap:butt" />
									</g>
								</g>
							</g>
							<g
   id="group15198-16"
   transform="translate(6.32654,-44.4017)">
								<title
   id="title55">circle8-5</title>
								<g
   id="group15199-17">
									<title
   id="title57">Sheet.15199</title>
									<g
   id="shape15200-18">
										<title
   id="title59">Sheet.15200</title>
										<ellipse
   cx="2.4756"
   cy="133.621"
   rx="2.4756"
   ry="2.4037399"
   class="st3"
   id="ellipse61"
   style="fill:#50e6ff;stroke:none;stroke-width:35.95959854;stroke-linecap:butt" />
									</g>
								</g>
							</g>
							<g
   id="group15201-20"
   transform="translate(6.32654,-33.852)">
								<title
   id="title66">circle10-2</title>
								<g
   id="group15202-21">
									<title
   id="title68">Sheet.15202</title>
									<g
   id="shape15203-22">
										<title
   id="title70">Sheet.15203</title>
										<ellipse
   cx="2.4756"
   cy="133.621"
   rx="2.4756"
   ry="2.4037399"
   class="st3"
   id="ellipse72"
   style="fill:#50e6ff;stroke:none;stroke-width:35.95959854;stroke-linecap:butt" />
									</g>
								</g>
							</g>
						</g>
					</g>
					<g
   id="group15204-24"
   transform="translate(16.0763)">
						<title
   id="title79">Sheet.15204</title>
						<g
   id="group15205-25">
							<title
   id="title81">path20-6</title>
							<g
   id="group15206-26">
								<title
   id="title83">Sheet.15206</title>
								<g
   id="shape15207-27">
									<title
   id="title85">Sheet.15207</title>
									<path
   d="M 17.44,106.01 0,129.26 l 17.44,6.76 z"
   class="st4"
   id="path87"
   inkscape:connector-curvature="0"
   style="fill:#f9f9f9;fill-opacity:0.5;stroke:none;stroke-width:43.37189865;stroke-linecap:butt" />
								</g>
							</g>
						</g>
						<g
   id="group15208-29"
   transform="translate(0.213362,-0.215879)">
							<title
   id="title92">Sheet.15208</title>
							<g
   id="group15209-30">
								<title
   id="title94">Sheet.15209</title>
								<g
   id="group15210-31">
									<title
   id="title96">Sheet.15210</title>
									<g
   id="shape15211-32">
										<title
   id="title98">Sheet.15211</title>
										<path
   d="m 0,114.27 h 34.73 v 20.53 a 1.23104,1.16158 90 0 1 -1.15,1.22 H 1.16 A 1.23104,1.16158 90 0 1 0,134.8 Z"
   class="st5"
   id="path100"
   inkscape:connector-curvature="0"
   style="fill:url(#grad0-35);stroke:none;stroke-width:0.74999702;stroke-linecap:butt" />
									</g>
								</g>
							</g>
							<g
   id="group15212-36"
   transform="translate(0,-21.7628)">
								<title
   id="title105">Sheet.15212</title>
								<g
   id="group15213-37">
									<title
   id="title107">Sheet.15213</title>
									<g
   id="shape15214-38">
										<title
   id="title109">Sheet.15214</title>
										<path
   d="m 1.16,128.18 h 32.41 a 1.23104,1.16158 90 0 1 1.16,1.23 v 6.61 H 0 v -6.61 a 1.23104,1.16158 90 0 1 1.16,-1.23 z"
   class="st6"
   id="path111"
   inkscape:connector-curvature="0"
   style="fill:#0078d4;stroke:none;stroke-width:0.74999702;stroke-linecap:butt" />
									</g>
								</g>
							</g>
							<g
   id="group15215-40"
   transform="translate(4.88802,-24.1737)">
								<title
   id="title116">Sheet.15215</title>
								<g
   id="group15216-41">
									<title
   id="title118">Sheet.15216</title>
									<g
   id="shape15217-42">
										<title
   id="title120">Sheet.15217</title>
										<path
   d="m 0,135.42 a 0.605177,0.571031 -90 0 0 0.571018,0.60516 L 24.39,136.02 a 0.605177,0.571031 -90 0 0 0.571018,-0.60516 L 24.96,133.53 a 0.605177,0.571031 -90 0 0 -0.571018,-0.60516 L 0.57,132.93 a 0.605177,0.571031 -90 0 0 -0.571018,0.60516 z"
   class="st7"
   id="path122"
   inkscape:connector-curvature="0"
   style="fill:#f2f2f2;stroke:none;stroke-width:0.74999702;stroke-linecap:butt" />
									</g>
								</g>
							</g>
							<g
   id="group15218-44"
   transform="translate(8.3124,-4.11789)">
								<title
   id="title127">Sheet.15218</title>
								<g
   id="group15219-45">
									<title
   id="title129">Sheet.15219</title>
									<g
   id="group15220-46">
										<title
   id="title131">Sheet.15220</title>
										<g
   id="shape15221-47">
											<title
   id="title133">Sheet.15221</title>
											<path
   d="M 3.87,135.62 8.32,122.86 A 0.62127,0.586216 -90 0 0 7.770694,122.02474 L 5.01,122.02 a 0.618969,0.584045 -90 0 0 -0.547134,0.40498 L 0,135.19 a 0.618969,0.584045 -90 0 0 0.547134,0.83296 L 3.32,136.02 a 0.62127,0.586216 -90 0 0 0.549306,-0.40267 z"
   class="st7"
   id="path135"
   inkscape:connector-curvature="0"
   style="fill:#f2f2f2;stroke:none;stroke-width:0.74999702;stroke-linecap:butt" />
										</g>
									</g>
								</g>
								<g
   id="group15222-49"
   transform="translate(9.78113)">
									<title
   id="title140">Sheet.15222</title>
									<g
   id="group15223-50">
										<title
   id="title142">Sheet.15223</title>
										<g
   id="shape15224-51">
											<title
   id="title144">Sheet.15224</title>
											<path
   d="M 3.87,135.62 8.32,122.86 A 0.618969,0.584045 -90 0 0 7.772866,122.02474 L 5.01,122.02 a 0.618969,0.584045 -90 0 0 -0.549306,0.40498 L 0,135.19 a 0.618969,0.584045 -90 0 0 0.549306,0.83296 L 3.33,136.02 a 0.618969,0.584045 -90 0 0 0.547134,-0.40267 z"
   class="st7"
   id="path146"
   inkscape:connector-curvature="0"
   style="fill:#f2f2f2;stroke:none;stroke-width:0.74999702;stroke-linecap:butt" />
										</g>
									</g>
								</g>
							</g>
						</g>
					</g>
				</g>
			</g>
		</g>
	</g>
</svg>

<?xml version="1.0" encoding="UTF-8" standalone="no"?>
<!DOCTYPE svg PUBLIC "-//W3C//DTD SVG 1.1//EN" "http://www.w3.org/Graphics/SVG/1.1/DTD/svg11.dtd">
<!-- Generated by Microsoft Visio, SVG Export FTP Server.svg Page-1 -->
<svg xmlns="http://www.w3.org/2000/svg" xmlns:xlink="http://www.w3.org/1999/xlink" xmlns:ev="http://www.w3.org/2001/xml-events"
		width="1.56738in" height="1.88923in" viewBox="0 0 112.851 136.025" xml:space="preserve" color-interpolation-filters="sRGB"
		class="st8">
	<style type="text/css">
	<![CDATA[
		.st1 {fill:url(#grad0-11);stroke:none;stroke-linecap:butt;stroke-width:35.9596}
		.st2 {fill:#003067;stroke:none;stroke-linecap:butt;stroke-width:35.9596}
		.st3 {fill:#50e6ff;stroke:none;stroke-linecap:butt;stroke-width:35.9596}
		.st4 {fill:#f9f9f9;fill-opacity:0.5;stroke:none;stroke-linecap:butt;stroke-width:43.3719}
		.st5 {fill:url(#grad0-35);stroke:none;stroke-linecap:butt;stroke-width:0.749997}
		.st6 {fill:#0078d4;stroke:none;stroke-linecap:butt;stroke-width:0.749997}
		.st7 {fill:#f2f2f2;stroke:none;stroke-linecap:butt;stroke-width:0.749997}
		.st8 {fill:none;fill-rule:evenodd;font-size:12px;overflow:visible;stroke-linecap:square;stroke-miterlimit:3}
	]]>
	</style>

	<defs id="Patterns_And_Gradients">
		<linearGradient id="grad0-11" x1="0" y1="0" x2="1" y2="0" gradientTransform="rotate(-90 0.5 0.5)">
			<stop offset="0" stop-color="#949494" stop-opacity="1"/>
			<stop offset="0.53" stop-color="#a2a2a2" stop-opacity="1"/>
			<stop offset="1" stop-color="#b3b3b3" stop-opacity="1"/>
		</linearGradient>
		<linearGradient id="grad0-35" x1="0" y1="0" x2="1" y2="0" gradientTransform="rotate(-90 0.5 0.5)">
			<stop offset="0" stop-color="#32bedd" stop-opacity="1"/>
			<stop offset="0.175" stop-color="#32caea" stop-opacity="1"/>
			<stop offset="0.41" stop-color="#32d2f2" stop-opacity="1"/>
			<stop offset="0.775" stop-color="#32d4f5" stop-opacity="1"/>
		</linearGradient>
	</defs>
	<g>
		<title>Page-1</title>
		<g id="group14804-1" transform="translate(35.9598,-43.3719)">
			<title>FTP Server.14804</title>
			<g id="group14805-2">
				<title>Page-1</title>
				<g id="group14806-3">
					<title>Sheet.14806</title>
					<g id="group14807-4" transform="translate(0,-0.879719)">
						<title>Sheet.14807</title>
						<g id="group14808-5">
							<title>Icon-databases-136.149</title>
							<g id="group14809-6">
								<title>path4-5</title>
								<g id="group14810-7">
									<title>Sheet.14810</title>
									<g id="shape14811-8">
										<title>Sheet.14811</title>
										<path d="M33.77 134.12 A1.99423 1.93635 -180 0 1 31.81 136.02 L1.96 136.02 A1.95986 1.90296
													 -180 0 1 -0 134.12 L0 82.1 A1.92547 1.86957 -180 0 1 1.96 80.21 L31.81 80.21
													 A1.95986 1.90296 -180 0 1 33.77 82.1 L33.77 134.12 Z" class="st1"/>
									</g>
								</g>
							</g>
							<g id="group14812-12" transform="translate(4.95121,-32.684)">
								<title>path6-7</title>
								<g id="group14813-13">
									<title>Sheet.14813</title>
									<g id="shape14814-14">
										<title>Sheet.14814</title>
										<path d="M0 132.46 A3.67902 3.57222 -180 0 1 3.65 128.92 L20.49 128.92 A3.67902 3.57222 -180
													 0 1 24.27 132.46 A3.67902 3.57222 -180 0 1 20.49 136.02 L3.65 136.02 A3.67902
													 3.57222 -180 0 1 0 132.46 ZM0 121.9 A3.67902 3.57222 -180 0 1 3.65 118.33 L20.49
													 118.33 A3.67902 3.57222 -180 0 1 24.27 121.9 A3.67902 3.57222 -180 0 1 20.49
													 125.45 L3.65 125.45 A3.67902 3.57222 -180 0 1 -0 121.9 Z" class="st2"/>
									</g>
								</g>
							</g>
							<g id="group14815-16" transform="translate(6.32654,-44.4017)">
								<title>circle8-5</title>
								<g id="group14816-17">
									<title>Sheet.14816</title>
									<g id="shape14817-18">
										<title>Sheet.14817</title>
										<ellipse cx="2.4756" cy="133.621" rx="2.4756" ry="2.40374" class="st3"/>
									</g>
								</g>
							</g>
							<g id="group14818-20" transform="translate(6.32654,-33.852)">
								<title>circle10-2</title>
								<g id="group14819-21">
									<title>Sheet.14819</title>
									<g id="shape14820-22">
										<title>Sheet.14820</title>
										<ellipse cx="2.4756" cy="133.621" rx="2.4756" ry="2.40374" class="st3"/>
									</g>
								</g>
							</g>
						</g>
					</g>
					<g id="group14821-24" transform="translate(16.0763,0)">
						<title>Sheet.14821</title>
						<g id="group14822-25">
							<title>path20-6</title>
							<g id="group14823-26">
								<title>Sheet.14823</title>
								<g id="shape14824-27">
									<title>Sheet.14824</title>
									<path d="M17.44 106.01 L0 129.26 L17.44 136.02 L17.44 106.01 Z" class="st4"/>
								</g>
							</g>
						</g>
						<g id="group14825-29" transform="translate(0.213362,-0.215879)">
							<title>Sheet.14825</title>
							<g id="group14826-30">
								<title>Sheet.14826</title>
								<g id="group14827-31">
									<title>Sheet.14827</title>
									<g id="shape14828-32">
										<title>Sheet.14828</title>
										<path d="M0 114.27 L34.73 114.27 L34.73 134.8 A1.23104 1.16158 90 0 1 33.58 136.02 L1.16
													 136.02 A1.23104 1.16158 90 0 1 0 134.8 L0 114.27 Z" class="st5"/>
									</g>
								</g>
							</g>
							<g id="group14829-36" transform="translate(0,-21.7628)">
								<title>Sheet.14829</title>
								<g id="group14830-37">
									<title>Sheet.14830</title>
									<g id="shape14831-38">
										<title>Sheet.14831</title>
										<path d="M1.16 128.18 L33.57 128.18 A1.23104 1.16158 90 0 1 34.73 129.41 L34.73 136.02 L0
													 136.02 L0 129.41 A1.23104 1.16158 90 0 1 1.16 128.18 Z" class="st6"/>
									</g>
								</g>
							</g>
							<g id="group14832-40" transform="translate(4.88802,-24.1737)">
								<title>Sheet.14832</title>
								<g id="group14833-41">
									<title>Sheet.14833</title>
									<g id="shape14834-42">
										<title>Sheet.14834</title>
										<path d="M0 135.42 a0.605177 0.571031 -90 0 0 0.571018 0.605163 L24.39 136.02 a0.605177 0.571031
													 -90 0 0 0.571018 -0.605163 L24.96 133.53 a0.605177 0.571031 -90 0 0 -0.571018
													 -0.605163 L0.57 132.93 a0.605177 0.571031 -90 0 0 -0.571018 0.605163 L0 135.42
													 Z" class="st7"/>
									</g>
								</g>
							</g>
							<g id="group14835-44" transform="translate(8.3124,-4.11789)">
								<title>Sheet.14835</title>
								<g id="group14836-45">
									<title>Sheet.14836</title>
									<g id="group14837-46">
										<title>Sheet.14837</title>
										<g id="shape14838-47">
											<title>Sheet.14838</title>
											<path d="M3.87 135.62 L8.32 122.86 a0.62127 0.586216 -90 0 0 -0.549306 -0.835263 L5.01
														 122.02 a0.618969 0.584045 -90 0 0 -0.547134 0.404976 L0 135.19 a0.618969
														 0.584045 -90 0 0 0.547134 0.832961 L3.32 136.02 a0.62127 0.586216 -90 0
														 0 0.549306 -0.402675 L3.87 135.62 Z" class="st7"/>
										</g>
									</g>
								</g>
								<g id="group14839-49" transform="translate(9.78113,0)">
									<title>Sheet.14839</title>
									<g id="group14840-50">
										<title>Sheet.14840</title>
										<g id="shape14841-51">
											<title>Sheet.14841</title>
											<path d="M3.87 135.62 L8.32 122.86 a0.618969 0.584045 -90 0 0 -0.547134 -0.835263 L5.01
														 122.02 a0.618969 0.584045 -90 0 0 -0.549306 0.404976 L0 135.19 a0.618969
														 0.584045 -90 0 0 0.549306 0.832961 L3.33 136.02 a0.618969 0.584045 -90 0
														 0 0.547134 -0.402675 L3.87 135.62 Z" class="st7"/>
										</g>
									</g>
								</g>
							</g>
						</g>
					</g>
				</g>
			</g>
		</g>
	</g>
</svg>
